client/src/assets/images/global/help.svg

<svg width="24px" height="24px" viewBox="0 0 24 24" version="1.1" xmlns="http://www.w3.org/2000/svg" xmlns:xlink="http://www.w3.org/1999/xlink">
    <g stroke="none" stroke-width="1" fill="none" fill-rule="evenodd">
        <g transform="translate(-400.000000, -247.000000)">
            <g id="69" transform="translate(400.000000, 247.000000)">
                <circle id="Oval-7" stroke="#000000" stroke-width="2" cx="12" cy="12" r="10"></circle>
                <path d="M12.016,14.544 C12.384,14.544 12.64,14.256 12.704,13.904 L12.768,13.168 C14.544,12.864 16,11.952 16,9.936 L16,9.904 C16,7.904 14.48,6.656 12.24,6.656 C10.768,6.656 9.696,7.184 8.848,7.984 C8.624,8.176 8.528,8.432 8.528,8.672 C8.528,9.152 8.928,9.552 9.424,9.552 C9.648,9.552 9.856,9.456 10.016,9.328 C10.656,8.752 11.344,8.448 12.192,8.448 C13.344,8.448 14.032,9.072 14.032,9.968 L14.032,10 C14.032,11.008 13.2,11.584 11.696,11.728 C11.264,11.776 11.008,12.096 11.072,12.528 L11.232,13.904 C11.28,14.272 11.552,14.544 11.92,14.544 L12.016,14.544 Z M10.784,16.816 L10.784,16.976 C10.784,17.6 11.264,18.08 11.92,18.08 C12.576,18.08 13.056,17.6 13.056,16.976 L13.056,16.816 C13.056,16.192 12.576,15.712 11.92,15.712 C11.264,15.712 10.784,16.192 10.784,16.816 Z" id="?" fill="#000000"></path>
            </g>
        </g>
    </g>
</svg>

<svg xmlns="http://www.w3.org/2000/svg" viewBox="0 0 24 24">
  <defs/>
  <g fill="none" fill-rule="evenodd">
    <circle cx="12" cy="12" r="10" stroke="#000" stroke-width="2"/>
    <path fill="#000" d="M12 14.5c.4 0 .6-.2.7-.6v-.7c1.8-.3 3.3-1.2 3.3-3.3 0-2-1.5-3.2-3.8-3.2-1.4 0-2.5.5-3.4 1.3-.2.2-.3.4-.3.7a.9.9 0 001.5.6c.7-.5 1.3-.9 2.2-.9 1.1 0 1.8.7 1.8 1.6 0 1-.8 1.6-2.3 1.7-.4 0-.7.4-.6.8l.1 1.4c0 .4.4.6.7.6h.1zm-1.2 2.3v.2a1 1 0 001.1 1 1 1 0 001.2-1v-.2a1 1 0 00-1.2-1 1 1 0 00-1.1 1z"/>
  </g>
</svg>
